X: 03057
T: MARY JANE'S JIG
C: Bob McQuillen 1 June 77
B: Bob's Note Book 03 #57
R: jig
%D:1977
Z: 2020 John Chambers <jc:trillian.mit.edu>
M: 6/8
L: 1/8
K: D
A \
| dAF GAB | A2F FGA | dAF GAB | AFA E2A |\
| dAF GAB | AFD FGA | ABc def | efe e2 :|
|: g \
| fed edd | fdd Ade | f2d efg | afd e2g |\
| fed edd | fed cBA | Bcd dcd | ecA A2 :|
%%begintext align
%% For Mary Jane Marsden,
%% a fery special lady from
%% Francestown, N.H.
%%endtext
